Papirus/32x32/apps/overcooked2.svg

<svg xmlns="http://www.w3.org/2000/svg" width="32" height="32" version="1.1">
 <path style="opacity:0.2" d="M 16.5,2.9999997 A 13.5,14 0 0 0 3,17 13.5,14 0 0 0 16.5,31 13.5,14 0 0 0 30,17 13.5,14 0 0 0 16.5,2.9999997 Z m 0,10.4001953 A 2.8421054,3.6 0 0 1 19.342105,17 2.8421054,3.6 0 0 1 16.5,20.599805 2.8421054,3.6 0 0 1 13.657895,17 2.8421054,3.6 0 0 1 16.5,13.400195 Z"/>
 <path style="fill:#ae2d20" d="M 16.5,2 A 13.5,14 0 0 0 3,16 13.5,14 0 0 0 16.5,30 13.5,14 0 0 0 30,16 13.5,14 0 0 0 16.5,2 Z m 0,10.400195 A 2.8421054,3.6 0 0 1 19.342105,16 2.8421054,3.6 0 0 1 16.5,19.599805 2.8421054,3.6 0 0 1 13.657895,16 2.8421054,3.6 0 0 1 16.5,12.400195 Z"/>
 <path style="opacity:0.2" d="M 16.5,4.9999997 A 11.499999,12 0 0 0 5,17 11.499999,12 0 0 0 16.5,29 11.499999,12 0 0 0 28,17 11.499999,12 0 0 0 16.5,4.9999997 Z m 0,5.6470593 A 5.0312501,6.3529413 0 0 1 21.53125,17 5.0312501,6.3529413 0 0 1 16.5,23.352941 5.0312501,6.3529413 0 0 1 11.46875,17 5.0312501,6.3529413 0 0 1 16.5,10.647059 Z"/>
 <path style="fill:#ffffff" d="M 16.5,4 A 11.499999,12 0 0 0 5,16 11.499999,12 0 0 0 16.5,28 11.499999,12 0 0 0 28,16 11.499999,12 0 0 0 16.5,4 Z m 0,5.6470588 A 5.0312501,6.3529413 0 0 1 21.53125,16 5.0312501,6.3529413 0 0 1 16.5,22.352941 5.0312501,6.3529413 0 0 1 11.46875,16 5.0312501,6.3529413 0 0 1 16.5,9.6470588 Z"/>
 <path style="opacity:0.2" d="m 25.056633,30.589382 c -1.312694,-0.150759 -2.629627,-0.279327 -3.935698,-0.47247 -0.295487,-0.407641 0.04481,-0.992289 0.03419,-1.47267 0.320617,-1.584568 1.590741,-2.851889 3.018537,-3.724346 0.832469,-0.572367 1.819634,-1.07523 2.313665,-1.947342 0.135214,-0.589892 0.06544,-1.237125 -0.211505,-1.785567 -0.498041,-0.541084 -1.393551,-0.510358 -2.092192,-0.408745 -0.577731,0.02031 -1.151902,0.511073 -1.639344,0.500195 -0.03498,-0.7401 0.01486,-1.490782 0.147962,-2.220746 0.290777,-0.786111 1.304371,-0.972419 2.106786,-1.032267 1.579163,-0.126739 3.3629,0.202836 4.395169,1.385652 0.759592,0.841313 0.872121,1.979186 0.777158,3.024743 -0.03516,1.415741 -1.207487,2.526526 -2.419687,3.27656 -0.80777,0.50776 -1.733613,0.902683 -2.382883,1.588032 -0.05507,0.517725 0.9776,0.333955 1.377638,0.475578 0.973112,0.123866 1.964416,0.181921 2.916917,0.404577 0.07435,0.822866 -0.04599,1.656401 -0.154945,2.474574 0.01313,0.602841 -0.852489,0.224569 -1.253402,0.259326 -1.000167,-0.102824 -1.998923,-0.216722 -2.998369,-0.325084 z"/>
 <path style="fill:#fd9a00" d="m 25.056633,29.589382 c -1.312694,-0.150759 -2.629627,-0.279327 -3.935698,-0.47247 -0.295487,-0.407641 0.04481,-0.992289 0.03419,-1.47267 0.320617,-1.584568 1.590741,-2.851889 3.018537,-3.724346 0.832469,-0.572367 1.819634,-1.07523 2.313665,-1.947342 0.135214,-0.589892 0.06544,-1.237125 -0.211505,-1.785567 -0.498041,-0.541084 -1.393551,-0.510358 -2.092192,-0.408745 -0.577731,0.02031 -1.151902,0.511073 -1.639344,0.500195 -0.03498,-0.7401 0.01486,-1.490782 0.147962,-2.220746 0.290777,-0.786111 1.304371,-0.972419 2.106786,-1.032267 1.579163,-0.126739 3.3629,0.202836 4.395169,1.385652 0.759592,0.841313 0.872121,1.979186 0.777158,3.024743 -0.03516,1.415741 -1.207487,2.526526 -2.419687,3.27656 -0.80777,0.50776 -1.733613,0.902683 -2.382883,1.588032 -0.05507,0.517725 0.9776,0.333955 1.377638,0.475578 0.973112,0.123866 1.964416,0.181921 2.916917,0.404577 0.07435,0.822866 -0.04599,1.656401 -0.154945,2.474574 0.01313,0.602841 -0.852489,0.224569 -1.253402,0.259326 -1.000167,-0.102824 -1.998923,-0.216722 -2.998369,-0.325084 z"/>
 <path style="opacity:0.1;fill:#ffffff" d="M 16.5 2 A 13.5 14 0 0 0 3 16 A 13.5 14 0 0 0 3.0195312 16.40625 A 13.5 14 0 0 1 16.5 3 A 13.5 14 0 0 1 29.980469 16.59375 A 13.5 14 0 0 0 30 16 A 13.5 14 0 0 0 16.5 2 z M 19.310547 16.498047 A 2.8421054 3.6 0 0 1 16.5 19.599609 A 2.8421054 3.6 0 0 1 13.689453 16.501953 A 2.8421054 3.6 0 0 0 13.658203 17 A 2.8421054 3.6 0 0 0 16.5 20.599609 A 2.8421054 3.6 0 0 0 19.341797 17 A 2.8421054 3.6 0 0 0 19.310547 16.498047 z"/>
</svg>

<svg xmlns="http://www.w3.org/2000/svg" width="32" height="32" version="1.1">
 <path style="opacity:0.2" d="M 16.5,3 A 13.5,14 0 0 0 3,17 13.5,14 0 0 0 16.5,31 13.5,14 0 0 0 30,17 13.5,14 0 0 0 16.5,3 Z m 0,10.4 A 2.842,3.6 0 0 1 19.342,17 2.842,3.6 0 0 1 16.5,20.6 2.842,3.6 0 0 1 13.658,17 2.842,3.6 0 0 1 16.5,13.4 Z"/>
 <path style="fill:#ae2d20" d="M 16.5,2 A 13.5,14 0 0 0 3,16 13.5,14 0 0 0 16.5,30 13.5,14 0 0 0 30,16 13.5,14 0 0 0 16.5,2 Z m 0,10.4002 A 2.8421,3.6 0 0 1 19.3421,16 2.8421,3.6 0 0 1 16.5,19.5998 2.8421,3.6 0 0 1 13.6579,16 2.8421,3.6 0 0 1 16.5,12.4002 Z"/>
 <path style="opacity:0.2" d="M 16.5,5 A 11.5,12 0 0 0 5,17 11.5,12 0 0 0 16.5,29 11.5,12 0 0 0 28,17 11.5,12 0 0 0 16.5,5 Z m 0,5.6471 A 5.0313,6.3529 0 0 1 21.5312,17 5.0313,6.3529 0 0 1 16.5,23.3529 5.0313,6.3529 0 0 1 11.4688,17 5.0313,6.3529 0 0 1 16.5,10.6471 Z"/>
 <path style="fill:#ffffff" d="M 16.5,4 A 11.5,12 0 0 0 5,16 11.5,12 0 0 0 16.5,28 11.5,12 0 0 0 28,16 11.5,12 0 0 0 16.5,4 Z m 0,5.6471 A 5.0313,6.3529 0 0 1 21.5312,16 5.0313,6.3529 0 0 1 16.5,22.3529 5.0313,6.3529 0 0 1 11.4688,16 5.0313,6.3529 0 0 1 16.5,9.6471 Z"/>
 <path style="opacity:0.2" d="M 21.121,30.117 C 20.825,29.709 21.166,29.125 21.155,28.644 21.476,27.06 22.746,25.792 24.174,24.92 25.006,24.348 25.993,23.845 26.487,22.973 26.622,22.383 26.553,21.736 26.276,21.187 25.778,20.646 24.882,20.677 24.184,20.778 23.606,20.799 23.032,21.289 22.544,21.279 22.509,20.538 22.559,19.788 22.692,19.058 22.983,18.272 23.997,18.085 24.799,18.026 26.378,17.899 28.162,18.228 29.194,19.411 29.954,20.253 30.066,21.39 29.971,22.436 29.936,23.852 28.764,24.962 27.552,25.713 26.744,26.22 25.818,26.615 25.169,27.301 25.114,27.818 26.146,27.635 26.547,27.776 27.52,27.9 28.511,27.958 29.463,28.181 29.538,29.004 29.417,29.837 29.308,30.655 29.322,31.258 28.456,30.88 28.055,30.915"/>
 <path style="fill:#fd9a00" d="M 21.121,29.117 C 20.825,28.709 21.166,28.125 21.155,27.644 21.476,26.06 22.746,24.792 24.174,23.92 25.006,23.348 25.993,22.845 26.487,21.973 26.622,21.383 26.553,20.736 26.276,20.187 25.778,19.646 24.882,19.677 24.184,19.778 23.606,19.799 23.032,20.289 22.544,20.279 22.509,19.538 22.559,18.788 22.692,18.058 22.983,17.272 23.997,17.085 24.799,17.026 26.378,16.899 28.162,17.228 29.194,18.411 29.954,19.253 30.066,20.39 29.971,21.436 29.936,22.852 28.764,23.962 27.552,24.713 26.744,25.22 25.818,25.615 25.169,26.301 25.114,26.818 26.146,26.635 26.547,26.776 27.52,26.9 28.511,26.958 29.463,27.181 29.538,28.004 29.417,28.837 29.308,29.655 29.322,30.258 28.456,29.88 28.055,29.915"/>
 <path style="opacity:0.1;fill:#ffffff" d="M 16.5 2 A 13.5 14 0 0 0 3 16 A 13.5 14 0 0 0 3.0195 16.4062 A 13.5 14 0 0 1 16.5 3 A 13.5 14 0 0 1 29.9805 16.5938 A 13.5 14 0 0 0 30 16 A 13.5 14 0 0 0 16.5 2 z M 19.3105 16.498 A 2.8421 3.6 0 0 1 16.5 19.5996 A 2.8421 3.6 0 0 1 13.6895 16.502 A 2.8421 3.6 0 0 0 13.6582 17 A 2.8421 3.6 0 0 0 16.5 20.5996 A 2.8421 3.6 0 0 0 19.3418 17 A 2.8421 3.6 0 0 0 19.3105 16.498 z"/>
</svg>
